X:0665
M:C
L:1/8
Q:1/4=120
K:D
  FAAB      defe                 |   dBAF            TE2         E2       |
  FAA>B     d>edc                |   BABd             e/d/e/f/   eE       |\
  FAA>B     df/g//a// {g}f>e     |{e}dB/d/ {B}AG/F/  TE2         D2      ||
  fa df/g/  a/g/f/g/     a2      |   gb       eg/a/   b/a/g/a/   ba/g/    |\
  fa df/g/  a/g/f/g/     ad      |   A>dfd           Te2     {de}d2       |
  fa df/g/  a/g/f/g/     b/a/g/f/|   gb       eg/a/   b/a/g/a/   c'/b/a/g/|\
  f<ae<f    d<AB>b               |   d<AdF          TE2      {DE}D2      |]

